X:74
T:The Road to Lisdoonvarna
M:6/8
K:E Dorian
L:1/8
"Em"E2 B B2 A|B2 c d3|"D"F2 A BAF|D2 E FED|!
"Em/C"E2 B B2 A|B2 c d3|"D"cdc B2 A|"Em"B2 E E3 :|
"Em"e2 f gfe|"G"d2 B Bcd|"A"c2 A ABc|"Bm"d2 B B2|!
"Em"e2 f gfe|"G"d2 B Bcd|"A"cdc B2 A|"Em"B2 E E3 :|

